!!!SOCIAL_FUNCTION:	songs used in treatment of the sick
!!!PDT:	1918

Specific Region: Dakotas, Minnesota, Montana, Nebraska
!!!REG: Dakotas and Montana
!!!LING_GROUP: Siouan
!!!LANG: Tone
!!!OTL@ENG: Behold All These Things
!!!ONM: No. 81
**kern
*Imale
*clefF4
*k[b-e-a-d-g-c-]
*M2/4
*MM66
4f
=1
8f
8e-
4e-
=2
12e-
12B-
12B-
8.e-
16e-
=3
12e-
12B-
12B-
4B-
=4
12e-
12B-
12B-
4f
=5
8.f
16e-
4e-
=6
12e-
12B-
12B-
4e-
=7
12e-
12e-
12B-
4B-
=8
12e-
12A-
12A-
4A-
=9
12e-
12A-
12F
4E-
=10
12E-
12E-
12E-
4E-
=11||
*M3/4
12B-
12A-
12A-
12A-
12G-
12G-
4G-
=12||
*M2/4
12E-
12E-
12E-
4E-
=13
12E-
12E-
12E-
4E-
=14
12E-
12E-
12E-
4E-
=15
12e-
12B-
12B-
4f
=16
16f
8.e-
16e-
8.e-
=17
12e-
12B-
12B-
4e-
=18
8.e-
16B-
16B-
8.B-
=19||
*M3/4
12e-
12B-
(24B-
24A-)
(24e-
24A-)
12E-
12E-
4E-
=20||
*M2/4
12E-
12E-
12E-
4E-
=21
(16B-
16A-)
16A-
16A-
16G-
16G-
8G-
=22
16E-
[8.E-
8E-]
8E-
=23
12E-
12E-
12E-
8.E-
16E-
=24
8.E-
16F
4E-
==
*-
!!!CNT: Native American -- Sioux
!!!MRD: 1911/07//-1914///
!!!OCL: Frances Densmore
!!!YOR1: Teton Sioux Music, Bulletin 61,
!!!YOR2: Bureau of American Ethnology, Smithsonian Institution
!!!PPR: Government Printing Office
!!!PPP: Washington, D.C.
!!!PDT: 1918///
!!!ENC: Craig Stuart Sapp
!!!END: 2002/03/25/
!!!EEV: 2002/03/31/
!!!AGN: Song of Personal Dreams/Song Used in Treatment of the Sick
!!!MPN@@SIO: Wangbli'-waha'chungka
!!!MPN@ENG: Eagle Shield
!!!TXO: Teton Sioux
!!!MLC: Standing Rock Reservation, South Dakota, United States of America
!!!ARL: 45.9/-100.7#
!!!catalog: Catalogue No. 511
!!!PPG: 255
!!!EFL: 81/245
!!!VTS: 501214819
